app/assets/images/icons/active/search.svg

<?xml version="1.0" encoding="UTF-8" standalone="no"?>
<svg width="15px" height="130px" viewBox="0 0 15 130" version="1.1" xmlns="http://www.w3.org/2000/svg" xmlns:xlink="http://www.w3.org/1999/xlink" xmlns:sketch="http://www.bohemiancoding.com/sketch/ns">
    <title>search</title>
    <description>Created with Sketch (http://www.bohemiancoding.com/sketch)</description>
    <defs></defs>
    <g id="Actions" stroke="none" stroke-width="1" fill="none" fill-rule="evenodd" sketch:type="MSPage">
        <path d="M14.6850005,81.7314619 L11.0857858,78.1316475 C11.6292654,77.2390669 11.9408445,76.1924063 11.9408445,75.0729187 C11.9408445,71.8191825 9.12117227,69 5.86683524,69 C2.61368743,69 -0.0234375,71.6368144 -0.0234375,74.8917544 C-0.0234375,78.1472962 2.79623475,80.9658769 6.04938255,80.9658769 C7.13158489,80.9658769 8.14540632,80.6733656 9.01651974,80.1617719 L12.6329783,83.7814481 C12.9879645,84.1353506 13.5605803,84.1353506 13.9149719,83.7814481 L14.812843,82.8840525 C15.1678292,82.5289463 15.039392,82.0853644 14.6850005,81.7314619 C14.6850005,81.7314619 15.039392,82.0853644 14.6850005,81.7314619 L14.6850005,81.7314619 L14.6850005,81.7314619 Z M1.78895411,74.8917544 C1.78895411,72.6377325 3.61740037,70.8128475 5.86683524,70.8128475 C8.12102703,70.8128475 10.1290475,72.8201006 10.1290475,75.0729187 C10.1290475,77.3263388 8.30357435,79.1518256 6.04938255,79.1518256 C3.79697461,79.1518256 1.78895411,77.1457762 1.78895411,74.8917544 L1.78895411,74.8917544 Z M1.78895411,74.8917544" id="search--lp-blue" fill="#206FAC" sketch:type="MSShapeGroup"></path>
        <path d="M14.6626173,58.6918 L11.0746151,55.1032 C11.6164016,54.2134 11.9270101,53.17 11.9270101,52.054 C11.9270101,48.8104 9.11612189,46 5.87192298,46 C2.62890959,46 1.77635684e-15,48.6286 1.77635684e-15,51.8734 C1.77635684e-15,55.1188 2.81088822,57.9286 6.05390161,57.9286 C7.1327326,57.9286 8.1433957,57.637 9.01179538,57.127 L12.6169877,60.7354 C12.970868,61.0882 13.5417,61.0882 13.8949875,60.7354 L14.7900616,59.8408 C15.1439419,59.4868 15.0159048,59.0446 14.6626173,58.6918 C14.6626173,58.6918 15.0159048,59.0446 14.6626173,58.6918 L14.6626173,58.6918 L14.6626173,58.6918 Z M1.80674553,51.8734 C1.80674553,49.6264 3.6294957,47.8072 5.87192298,47.8072 C8.11909237,47.8072 10.1208573,49.8082 10.1208573,52.054 C10.1208573,54.3004 8.301071,56.1202 6.05390161,56.1202 C3.80851051,56.1202 1.80674553,54.1204 1.80674553,51.8734 L1.80674553,51.8734 Z M1.80674553,51.8734" id="search--white" fill="#FFFFFF" sketch:type="MSShapeGroup"></path>
        <path d="M14.6626173,35.6918 L11.0746151,32.1032 C11.6164016,31.2134 11.9270101,30.17 11.9270101,29.054 C11.9270101,25.8104 9.11612189,23 5.87192298,23 C2.62890959,23 0,25.6286 0,28.8734 C0,32.1188 2.81088822,34.9286 6.05390161,34.9286 C7.1327326,34.9286 8.1433957,34.637 9.01179538,34.127 L12.6169877,37.7354 C12.970868,38.0882 13.5417,38.0882 13.8949875,37.7354 L14.7900616,36.8408 C15.1439419,36.4868 15.0159048,36.0446 14.6626173,35.6918 C14.6626173,35.6918 15.0159048,36.0446 14.6626173,35.6918 L14.6626173,35.6918 L14.6626173,35.6918 Z M1.80674553,28.8734 C1.80674553,26.6264 3.6294957,24.8072 5.87192298,24.8072 C8.11909237,24.8072 10.1208573,26.8082 10.1208573,29.054 C10.1208573,31.3004 8.301071,33.1202 6.05390161,33.1202 C3.80851051,33.1202 1.80674553,31.1204 1.80674553,28.8734 L1.80674553,28.8734 Z M1.80674553,28.8734" id="search--body-grey" fill="#67737B" sketch:type="MSShapeGroup"></path>
        <path d="M14.6626173,12.6918 L11.0746151,9.1032 C11.6164016,8.2134 11.9270101,7.17 11.9270101,6.054 C11.9270101,2.8104 9.11612189,0 5.87192298,0 C2.62890959,0 1.77635684e-15,2.6286 1.77635684e-15,5.8734 C1.77635684e-15,9.1188 2.81088822,11.9286 6.05390161,11.9286 C7.1327326,11.9286 8.1433957,11.637 9.01179538,11.127 L12.6169877,14.7354 C12.970868,15.0882 13.5417,15.0882 13.8949875,14.7354 L14.7900616,13.8408 C15.1439419,13.4868 15.0159048,13.0446 14.6626173,12.6918 C14.6626173,12.6918 15.0159048,13.0446 14.6626173,12.6918 L14.6626173,12.6918 L14.6626173,12.6918 Z M1.80674553,5.8734 C1.80674553,3.6264 3.6294957,1.8072 5.87192298,1.8072 C8.11909237,1.8072 10.1208573,3.8082 10.1208573,6.054 C10.1208573,8.3004 8.301071,10.1202 6.05390161,10.1202 C3.80851051,10.1202 1.80674553,8.1204 1.80674553,5.8734 L1.80674553,5.8734 Z M1.80674553,5.8734" id="search--title-grey" fill="#3A434E" sketch:type="MSShapeGroup"></path>
    </g>
</svg>

<svg width="15" height="130" viewBox="0 0 15 130" xmlns="http://www.w3.org/2000/svg" xmlns:sketch="http://www.bohemiancoding.com/sketch/ns"><title>search</title><g sketch:type="MSPage" fill="none"><path d="M14.685 81.731l-3.599-3.6c.543-.893.855-1.939.855-3.059 0-3.254-2.82-6.073-6.074-6.073-3.253 0-5.89 2.637-5.89 5.892 0 3.256 2.82 6.074 6.073 6.074 1.082 0 2.096-.293 2.967-.804l3.616 3.62c.355.354.928.354 1.282 0l.898-.897c.355-.355.227-.799-.128-1.153zm-12.896-6.84c0-2.254 1.828-4.079 4.078-4.079 2.254 0 4.262 2.007 4.262 4.26 0 2.253-1.825 4.079-4.08 4.079-2.252 0-4.26-2.006-4.26-4.26zm0 0" fill="#206FAC" sketch:type="MSShapeGroup"/><path d="M14.663 58.692l-3.588-3.589c.542-.89.852-1.933.852-3.049 0-3.244-2.811-6.054-6.055-6.054-3.243 0-5.872 2.629-5.872 5.873 0 3.245 2.811 6.055 6.054 6.055 1.079 0 2.089-.292 2.958-.802l3.605 3.608c.354.353.925.353 1.278 0l.895-.895c.354-.354.226-.796-.127-1.149zm-12.856-6.818c0-2.247 1.823-4.066 4.065-4.066 2.247 0 4.249 2.001 4.249 4.247s-1.82 4.066-4.067 4.066c-2.245 0-4.247-2-4.247-4.247zm0 0" fill="#fff" sketch:type="MSShapeGroup"/><path d="M14.663 35.692l-3.588-3.589c.542-.89.852-1.933.852-3.049 0-3.244-2.811-6.054-6.055-6.054-3.243 0-5.872 2.629-5.872 5.873 0 3.245 2.811 6.055 6.054 6.055 1.079 0 2.089-.292 2.958-.802l3.605 3.608c.354.353.925.353 1.278 0l.895-.895c.354-.354.226-.796-.127-1.149zm-12.856-6.818c0-2.247 1.823-4.066 4.065-4.066 2.247 0 4.249 2.001 4.249 4.247s-1.82 4.066-4.067 4.066c-2.245 0-4.247-2-4.247-4.247zm0 0" fill="#67737B" sketch:type="MSShapeGroup"/><path d="M14.663 12.692l-3.588-3.589c.542-.89.852-1.933.852-3.049 0-3.244-2.811-6.054-6.055-6.054-3.243 0-5.872 2.629-5.872 5.873 0 3.245 2.811 6.055 6.054 6.055 1.079 0 2.089-.292 2.958-.802l3.605 3.608c.354.353.925.353 1.278 0l.895-.895c.354-.354.226-.796-.127-1.149zm-12.856-6.818c0-2.247 1.823-4.066 4.065-4.066 2.247 0 4.249 2.001 4.249 4.247s-1.82 4.066-4.067 4.066c-2.245 0-4.247-2-4.247-4.247zm0 0" fill="#3A434E" sketch:type="MSShapeGroup"/></g></svg>
